X: 15458
T: Glen Road To Carrick, The
R: reel
M: 4/4
K: Dmixolydian
|FD D2 AD D2|FD D2 AcAG|FD D2 ADFG|AdcA G2 AG|
(3.F.G.A DA (3.F.G.A DA|(3.F.G.A DA GAAG|FDDE FDFG|DdcA G2 FG||
d3c AGFG|D2 dc A3G|D2 dc AGFG|E2 cA G2 FG|
Adcd A3G|Ddcd ABAG|Addc AGFG|E2 cA G2 fg||
fddf adde|fddf gaag|fddf addf|g2 fg effe|
f3d g3e|(3.f.g.f fd gaag|fdde (3.f.g.f fd|(3.e.f.e ef g2 ag||
fde^c d2 (3.F.G.A|FD D2 A2 (3.F.G.A|d2 cA BGAF|DdcA G3g|
f3e d2 (3.F.G.A|FD D2 A2 (3.F.G.A|d2 cA BGAF|DdcA GAB^c||
dD D2 AD D2|dD D2 A2 Bc|dD D2 AD D2|E2 cA GAB^c|
dD D2 AD D2|dD D2 A2 (3ABc|d2 fd AGFG|E2 cA GAB^c|
dDFD ADFD|dDFD A2 Bc|dD D2 AD D2|E2 cA GAB^c|
.dz D2 .Az D2|.dz D2 A2 (3ABc|d2 fd AGFG|E2 cA G4||

